X:699
T:Sweet Molly
T:Hopetoun House
T:The Youngest Daughter
B:Kerr's Merry Melodies Book 1
Z:Nigel Gatherer
M:4/4
L:1/8
K:Dm
A | D<DAD cDAd | cAGE CDEC | D<DAD cDAd  | cAGE A2 D :|
E | Ddde  fedc | AcAF CDEC | Ddde  fedc  | AcGE A2 DE |
    Ddde  fedc | AcAF CDEG | gefd  ecd=B | cAGE A2 D ||
